X:1
T: Mr. Adson's Masque
N:
C:John Adson, et. al.
S:Tune is modified from Adson's Masque
A:
O:
R:
M:4/4
K:Am
I:speed 95
%W: A
% voice 1 (1 lines, 24 notes)
K:Am
M:4/4
L:1/16
E4 |A2 B2 c2 A2 e4 a4 |g2 e2 d2 e2 c6 d2 |e2 ^f2 ^g2 a2 b4 c'4 |b2 ^f2 a4 ^g6 e2 |
%W:
% voice 1 (1 lines, 28 notes)
a2 e2 c2 A2 c B A2 ^G2 B2 |c3 A f4 B6 d2 |e2 c2 A2 B2 c d e2 ^G2 E2 |c4 B2 A ^G A8 |
%W: B
% voice 1 (1 lines, 24 notes)
c3 d e2 f2 g2 a b c'2 c2 |e4 d3 c e6 ^f2 |^g4 a4 b4 e4 |a4a2 ^g2 a4 =g2 b2 |
%W:
% voice 1 (1 lines, 22 notes)
c'4 b2 a2 g2 f2 e4 |a4 f2 d2 B6 B2 |c2 d2 e2 ^f2 ^g2 e2 c2 A2 |c4 B4 A8 ||
